X: 20528
T: John McEvoy's
R: reel
M: 4/4
K: Dmajor
ABAF DEFB|ABde fe e2|fdef dBAF|1 ABde fedB:|2 ABde fd d2||
fdad bdaf|dfaf ge e2|=cege aege|dfed cA A2|
fdad bdaf|dfaf ge e2|fdef dBAF|ABde fd d2:|

